src/assets/img/logo.svg

<?xml version="1.0" encoding="UTF-8"?>
<svg viewBox="0 0 54 45" xmlns="http://www.w3.org/2000/svg">
    <path d="m53.912 38.332-2.4286-30.658h-8.7589c-0.6051-3.9244-2.97-7.6744-8.0899-7.6744-5.12 0-7.4769 3.75-8.1219 7.6744h-8.4881l-0.1035 1.3716c-0.7689-0.26149-1.5763-0.3928-2.3888-0.38847-4.1007 0-6.0834 2.8621-6.7045 5.9619h-6.8399l-1.9668 24.625c-0.066887 0.7356 0.022002 1.4771 0.26092 2.1764 0.23892 0.6993 0.62255 1.341 1.1261 1.8834 0.50356 0.5425 1.1158 0.9737 1.7972 1.2659 0.68141 0.2921 1.4168 0.4386 2.1586 0.43h42.369c0.8587 0.0091 1.7097-0.1613 2.4981-0.5001s1.4967-0.8386 2.079-1.4669c0.5823-0.6284 1.0258-1.3714 1.3017-2.1811 0.2759-0.8096 0.3782-1.6679 0.3002-2.5194zm-19.277-34.883c3.0257 0 4.1724 2.1961 4.5944 4.2019h-9.1889c0.4221-1.982 1.5766-4.1781 4.5945-4.1781v-0.02379zm-19.11 8.6495c0.3795-0.0228 0.7599 0.0292 1.1192 0.153 0.3594 0.1238 0.6907 0.317 0.9749 0.5685l-0.1433 1.7759h-5.0801c0.1516-0.7102 0.5469-1.3456 1.118-1.797s1.2822-0.6906 2.0113-0.6766v-0.0238zm-10.893 28.264c-0.09766-0.1056-0.17048-0.2315-0.21317-0.3687-0.0427-0.1371-0.0542-0.282-0.03367-0.4241l1.6323-20.613h11.148l-1.5686 19.376c-0.0639 0.7855 0.0199 1.576 0.2469 2.3309h-10.463c-0.13916 0.0062-0.27802-0.0176-0.40717-0.0695-0.12914-0.052-0.24554-0.1311-0.34132-0.2318zm44.479-0.2695c-0.1774 0.1849-0.3914 0.3311-0.6285 0.4293-0.2372 0.0983-0.4922 0.1465-0.749 0.1415h-25.95c-0.2569 0.0059-0.5122-0.0418-0.7495-0.1401-0.2372-0.0983-0.4512-0.245-0.628-0.4307-0.1753-0.1882-0.3085-0.4113-0.3909-0.6546-0.0823-0.2433-0.1119-0.5011-0.0868-0.7566l2.11-26.67h25.425l2.1101 26.67c0.0272 0.2543 1e-4 0.5115-0.0795 0.7547s-0.2099 0.4669-0.3824 0.6565z"
          fill="#fff"/>
    <path d="m41.124 18.179h-7.7317c-0.4625 0-0.906 0.1829-1.2331 0.5085-0.327 0.3256-0.5107 0.7672-0.5107 1.2277s0.1837 0.9021 0.5107 1.2277c0.3271 0.3256 0.7706 0.5086 1.2331 0.5086h7.7317c0.4624 0 0.906-0.183 1.233-0.5086s0.5108-0.7672 0.5108-1.2277-0.1838-0.9021-0.5108-1.2277-0.7706-0.5085-1.233-0.5085z"
          fill="#fff"/>
    <path d="m41.124 24.577h-7.7317c-0.4625 0-0.906 0.1829-1.2331 0.5085-0.327 0.3256-0.5107 0.7672-0.5107 1.2277s0.1837 0.9021 0.5107 1.2277c0.3271 0.3256 0.7706 0.5086 1.2331 0.5086h7.7317c0.4624 0 0.906-0.183 1.233-0.5086s0.5108-0.7672 0.5108-1.2277-0.1838-0.9021-0.5108-1.2277-0.7706-0.5085-1.233-0.5085z"
          fill="#fff"/>
    <path d="m41.124 31.022h-7.7317c-0.4625 0-0.906 0.1829-1.2331 0.5085-0.327 0.3256-0.5107 0.7673-0.5107 1.2277 0 0.4605 0.1837 0.9021 0.5107 1.2277 0.3271 0.3257 0.7706 0.5086 1.2331 0.5086h7.7317c0.4624 0 0.906-0.1829 1.233-0.5086 0.327-0.3256 0.5108-0.7672 0.5108-1.2277 0-0.4604-0.1838-0.9021-0.5108-1.2277s-0.7706-0.5085-1.233-0.5085z"
          fill="#fff"/>
    <path d="m27.158 18.686c-0.3258 0.3267-0.5086 0.7685-0.5086 1.2289s0.1828 0.9021 0.5086 1.2288c0.1607 0.1609 0.3517 0.2886 0.5622 0.3757 0.2104 0.0871 0.4361 0.1318 0.664 0.1317 0.3452 5e-4 0.6828-0.1011 0.97-0.2919 0.2872-0.1907 0.5111-0.4621 0.6433-0.7796 0.1321-0.3175 0.1667-0.667 0.0992-1.0041s-0.2339-0.6467-0.4783-0.8895c-0.3343-0.3093-0.7738-0.4811-1.2302-0.4811s-0.8959 0.1718-1.2302 0.4811z"
          fill="#00EBC7"/>
    <path d="m27.158 25.108c-0.3258 0.3268-0.5086 0.7685-0.5086 1.2289s0.1828 0.9021 0.5086 1.2288c0.3274 0.3207 0.767 0.5026 1.2262 0.5074 0.4637-0.0064 0.9076-0.1878 1.2422-0.5074 0.3182-0.331 0.4977-0.7705 0.5016-1.2288-2e-4 -0.4605-0.1834-0.9023-0.5096-1.2289-0.3343-0.3092-0.7738-0.4811-1.2302-0.4811s-0.8959 0.1719-1.2302 0.4811z"
          fill="#00EBC7"/>
    <path d="m27.158 31.53c-0.2401 0.2438-0.403 0.5523-0.4686 0.8874s-0.0309 0.6821 0.0996 0.9977c0.1306 0.3157 0.3513 0.5864 0.6349 0.7783 0.2835 0.192 0.6175 0.2969 0.9603 0.3017 0.4634-0.0041 0.9066-0.1892 1.2342-0.5154 0.1621-0.1606 0.2906-0.3514 0.3784-0.5616 0.0877-0.2102 0.1328-0.4356 0.1328-0.6633 0-0.2276-0.0451-0.453-0.1328-0.6632-0.0878-0.2102-0.2163-0.401-0.3784-0.5616-0.3343-0.3093-0.7738-0.4812-1.2302-0.4812s-0.8958 0.1719-1.2302 0.4812z"
          fill="#00EBC7"/>
</svg>

<svg width="54" height="45" viewBox="0 0 54 45" fill="none" xmlns="http://www.w3.org/2000/svg">
<path d="M53.9124 38.3321L51.4838 7.67436H42.7249C42.1198 3.74997 39.7549 0 34.635 0C29.515 0 27.1581 3.74997 26.5131 7.67436H18.025L17.9215 9.04591C17.1526 8.78442 16.3452 8.65311 15.5327 8.65744C11.432 8.65744 9.4493 11.5195 8.82822 14.6193H1.98836L0.021597 39.2439C-0.0452897 39.9795 0.0435989 40.721 0.282518 41.4203C0.521437 42.1196 0.90507 42.7613 1.40862 43.3037C1.91218 43.8462 2.52444 44.2774 3.20585 44.5696C3.88726 44.8617 4.62265 45.0082 5.36449 44.9996H47.7334C48.5921 45.0087 49.4431 44.8383 50.2315 44.4995C51.0199 44.1607 51.7282 43.6609 52.3105 43.0326C52.8928 42.4042 53.3363 41.6612 53.6122 40.8515C53.8881 40.0419 53.9904 39.1836 53.9124 38.3321ZM34.635 3.4487C37.6607 3.4487 38.8074 5.64478 39.2294 7.65057H30.0405C30.4626 5.66856 31.6171 3.47249 34.635 3.47249V3.4487ZM15.5248 12.0982C15.9043 12.0754 16.2847 12.1274 16.644 12.2512C17.0034 12.375 17.3347 12.5682 17.6189 12.8197L17.4756 14.5956H12.3955C12.5471 13.8854 12.9424 13.25 13.5135 12.7986C14.0846 12.3472 14.7957 12.108 15.5248 12.122V12.0982ZM4.63193 40.3617C4.53427 40.2561 4.46145 40.1302 4.41876 39.993C4.37606 39.8559 4.36456 39.711 4.38509 39.5689L6.01743 18.956H17.165L15.5964 38.3321C15.5325 39.1176 15.6163 39.9081 15.8433 40.663H5.38042C5.24126 40.6692 5.1024 40.6454 4.97325 40.5935C4.84411 40.5415 4.72771 40.4624 4.63193 40.3617ZM49.1109 40.0922C48.9335 40.2771 48.7195 40.4233 48.4824 40.5215C48.2452 40.6198 47.9902 40.668 47.7334 40.663H21.7833C21.5264 40.6689 21.2711 40.6212 21.0338 40.5229C20.7966 40.4246 20.5826 40.2779 20.4058 40.0922C20.2305 39.904 20.0973 39.6809 20.0149 39.4376C19.9326 39.1943 19.903 38.9365 19.9281 38.681L22.0381 12.011H47.4627L49.5728 38.681C49.6 38.9353 49.5729 39.1925 49.4933 39.4357C49.4137 39.6789 49.2834 39.9026 49.1109 40.0922Z" fill="white"/>
<path d="M41.1245 18.1791H33.3928C32.9303 18.1791 32.4868 18.362 32.1597 18.6876C31.8327 19.0132 31.649 19.4548 31.649 19.9153C31.649 20.3758 31.8327 20.8174 32.1597 21.143C32.4868 21.4686 32.9303 21.6516 33.3928 21.6516H41.1245C41.5869 21.6516 42.0305 21.4686 42.3575 21.143C42.6845 20.8174 42.8683 20.3758 42.8683 19.9153C42.8683 19.4548 42.6845 19.0132 42.3575 18.6876C42.0305 18.362 41.5869 18.1791 41.1245 18.1791Z" fill="white"/>
<path d="M41.1245 24.577H33.3928C32.9303 24.577 32.4868 24.7599 32.1597 25.0855C31.8327 25.4111 31.649 25.8527 31.649 26.3132C31.649 26.7737 31.8327 27.2153 32.1597 27.5409C32.4868 27.8665 32.9303 28.0495 33.3928 28.0495H41.1245C41.5869 28.0495 42.0305 27.8665 42.3575 27.5409C42.6845 27.2153 42.8683 26.7737 42.8683 26.3132C42.8683 25.8527 42.6845 25.4111 42.3575 25.0855C42.0305 24.7599 41.5869 24.577 41.1245 24.577Z" fill="white"/>
<path d="M41.1245 31.0225H33.3928C32.9303 31.0225 32.4868 31.2054 32.1597 31.531C31.8327 31.8566 31.649 32.2983 31.649 32.7587C31.649 33.2192 31.8327 33.6608 32.1597 33.9864C32.4868 34.3121 32.9303 34.495 33.3928 34.495H41.1245C41.5869 34.495 42.0305 34.3121 42.3575 33.9864C42.6845 33.6608 42.8683 33.2192 42.8683 32.7587C42.8683 32.2983 42.6845 31.8566 42.3575 31.531C42.0305 31.2054 41.5869 31.0225 41.1245 31.0225Z" fill="white"/>
<path d="M27.1581 18.6864C26.8323 19.0131 26.6495 19.4549 26.6495 19.9153C26.6495 20.3757 26.8323 20.8174 27.1581 21.1441C27.3188 21.305 27.5098 21.4327 27.7203 21.5198C27.9307 21.6069 28.1564 21.6516 28.3843 21.6515C28.7295 21.652 29.0671 21.5504 29.3543 21.3596C29.6415 21.1689 29.8654 20.8975 29.9976 20.58C30.1297 20.2625 30.1643 19.913 30.0968 19.5759C30.0293 19.2388 29.8629 18.9292 29.6185 18.6864C29.2842 18.3771 28.8447 18.2053 28.3883 18.2053C27.9319 18.2053 27.4924 18.3771 27.1581 18.6864Z" fill="#00EBC7"/>
<path d="M27.1581 25.1081C26.8323 25.4349 26.6495 25.8766 26.6495 26.337C26.6495 26.7974 26.8323 27.2391 27.1581 27.5658C27.4855 27.8865 27.9251 28.0684 28.3843 28.0732C28.848 28.0668 29.2919 27.8854 29.6265 27.5658C29.9447 27.2348 30.1242 26.7953 30.1281 26.337C30.1279 25.8765 29.9447 25.4347 29.6185 25.1081C29.2842 24.7989 28.8447 24.627 28.3883 24.627C27.9319 24.627 27.4924 24.7989 27.1581 25.1081Z" fill="#00EBC7"/>
<path d="M27.1581 31.5299C26.918 31.7737 26.7551 32.0822 26.6895 32.4173C26.6239 32.7524 26.6586 33.0994 26.7891 33.415C26.9197 33.7307 27.1404 34.0014 27.424 34.1933C27.7075 34.3853 28.0415 34.4902 28.3843 34.495C28.8477 34.4909 29.2909 34.3058 29.6185 33.9796C29.7806 33.819 29.9091 33.6282 29.9969 33.418C30.0846 33.2078 30.1297 32.9824 30.1297 32.7547C30.1297 32.5271 30.0846 32.3017 29.9969 32.0915C29.9091 31.8813 29.7806 31.6905 29.6185 31.5299C29.2842 31.2206 28.8447 31.0487 28.3883 31.0487C27.9319 31.0487 27.4925 31.2206 27.1581 31.5299Z" fill="#00EBC7"/>
</svg>
